client/public/img/game/shared/emotes/saluting_face.svg

<?xml version="1.0" encoding="UTF-8" standalone="no"?>
<!-- Created with Inkscape (http://www.inkscape.org/) -->

<svg
   width="84"
   height="84"
   viewBox="0 0 22.225 22.225"
   version="1.1"
   id="svg1"
   xml:space="preserve"
   xmlns="http://www.w3.org/2000/svg"
   xmlns:svg="http://www.w3.org/2000/svg"><defs
     id="defs1" /><g
     id="layer1"
     transform="matrix(0.65625012,0,0,0.65625012,1240.293,-343.71081)"><g
       id="layer1-87"
       transform="matrix(0.24999996,0,0,0.24999996,-1889.97,523.74971)"><circle
         style="fill:#ffc703;fill-opacity:1;stroke:#584d00;stroke-width:6.17647;stroke-dasharray:none;stroke-opacity:1"
         id="path111-9"
         cx="75.957924"
         cy="77.383278"
         r="54.995152" /><path
         style="fill:#d4aa00;fill-opacity:1;stroke:#584d00;stroke-width:2.70156;stroke-dasharray:none;stroke-opacity:1"
         d="m 14.041187,45.921509 21.205226,-0.125846 c 0,0 1.636012,0 2.705711,-0.755083 1.0697,-0.755083 16.485963,-9.186835 16.485963,-9.186835 0,0 2.202324,-1.258467 2.076476,-2.516937 -0.125847,-1.258472 0.314617,-3.209101 -1.25847,-3.964182 -1.573089,-0.755083 -2.768635,-1.132624 -4.09003,-1.132624 -1.321393,0 -1.447241,-0.125848 -1.447241,-0.125848 L 68.532954,17.354233 c 0,0 1.258467,-0.692159 1.698935,-2.076475 0.440461,-1.384319 0.188769,-3.397871 -0.314615,-4.027106 C 69.413883,10.621417 68.218332,9.0483285 66.016013,9.2370989 63.81369,9.42587 23.039252,32.392954 23.039252,32.392954 Z"
         id="path3521" /><path
         style="fill:#ffc703;fill-opacity:1;stroke:#584d00;stroke-width:2.70156;stroke-dasharray:none;stroke-opacity:1"
         d="m 31.722697,32.392954 32.279762,-19.002902 2.705714,-1.95063 c 0,0 1.683196,-1.8479013 1.573089,-3.4293313 C 68.117962,5.6647514 65.947898,3.1444453 64.269886,2.8503615 62.743991,2.5829363 62.114755,2.8818264 59.597814,4.2032178 57.080874,5.5246113 25.807885,22.828579 25.807885,22.828579 Z"
         id="path3519" /><path
         style="fill:#ffc703;fill-opacity:1;stroke:#584d00;stroke-width:2.70156;stroke-dasharray:none;stroke-opacity:1"
         d="M 33.673326,26.22645 59.094427,10.306799 c 0,0 1.793322,-1.3371246 1.887709,-3.4607943 C 61.055258,5.2007625 59.770858,2.5357437 58.071921,1.7806614 56.372985,1.0255792 55.381939,1.2458118 53.808852,1.8750473 52.235763,2.5042822 40.280296,9.9292575 40.280296,9.9292575 L 28.513597,17.165462 Z"
         id="path3495" /><path
         style="fill:#ffc703;fill-opacity:1;stroke:#584d00;stroke-width:2.70156;stroke-dasharray:none;stroke-opacity:1"
         d="M 39.399365,6.3426172 6.7420583,24.967979 c 0,0 -3.9012579,4.027104 -3.9641816,8.809293 -0.062923,4.78219 1.2584705,6.10358 3.0203289,7.928361 1.7618586,1.824781 4.1529521,4.341722 6.9845114,4.341722 2.831559,0 6.229427,-0.251692 8.683446,-2.076473 2.454018,-1.824781 7.550821,-7.173278 7.550821,-7.173278 0,0 2.516942,-2.516944 3.272025,-5.411426 0.755081,-2.894482 1.573087,-7.110358 1.63601,-8.305904 0.06292,-1.195547 0.377542,-2.894482 0.377542,-2.894482 l 11.389156,-6.732817 c 0,0 1.573089,-1.006777 1.636012,-3.020329 0.06292,-2.0135523 -1.006776,-4.2787992 -2.076476,-4.845111 -1.0697,-0.5663119 -2.1394,-0.880929 -3.523716,-0.3775408 -1.384318,0.5033875 -2.328172,1.132623 -2.328172,1.132623 z"
         id="path3493" /><path
         style="fill:#ffd42a;fill-opacity:1;stroke:#584d00;stroke-width:5.55371;stroke-linecap:round;stroke-dasharray:none;stroke-opacity:1"
         d="m 46.338694,99.949441 c 0,0 27.124981,5.824209 59.238456,-0.776566"
         id="path4627" /><g
         id="g1089"
         transform="translate(0.0794239)"><ellipse
           style="fill:#ffd42a;fill-opacity:1;stroke:#584d00;stroke-width:5.55371;stroke-linecap:round;stroke-dasharray:none;stroke-opacity:1"
           id="path5407-6"
           cx="56.553799"
           cy="71.179619"
           rx="2.402657"
           ry="8.2758188" /><ellipse
           style="fill:#ffd42a;fill-opacity:1;stroke:#584d00;stroke-width:5.55371;stroke-linecap:round;stroke-dasharray:none;stroke-opacity:1"
           id="path5407-3"
           cx="95.203201"
           cy="71.179619"
           rx="2.402657"
           ry="8.2758188" /></g><g
         id="g1093"
         transform="translate(-0.62924361)"><path
           style="fill:#ffd42a;fill-opacity:1;stroke:#584d00;stroke-width:6.78015;stroke-linecap:round;stroke-dasharray:none;stroke-opacity:1"
           d="M 45.125405,61.162852 C 66.771096,60.911153 66.771096,60.911153 66.771096,60.911153"
           id="path6157" /><path
           style="fill:#ffd42a;fill-opacity:1;stroke:#584d00;stroke-width:6.78015;stroke-linecap:round;stroke-dasharray:none;stroke-opacity:1"
           d="M 86.403233,61.162852 C 108.04893,60.911153 108.04893,60.911153 108.04893,60.911153"
           id="path6157-6" /></g></g></g><style
     type="text/css"
     id="style16758">
	.st0{fill:#FFC300;stroke:#695000;stroke-width:13;stroke-miterlimit:10;}
	.st1{fill:#FFC300;stroke:#695000;stroke-width:13;stroke-linecap:round;stroke-miterlimit:10;}
</style><style
     type="text/css"
     id="style16758-4">
	.st0{fill:#FFC300;stroke:#695000;stroke-width:13;stroke-miterlimit:10;}
	.st1{fill:#FFC300;stroke:#695000;stroke-width:13;stroke-linecap:round;stroke-miterlimit:10;}
</style><style
     type="text/css"
     id="style16758-5">
	.st0{fill:#FFC300;stroke:#695000;stroke-width:13;stroke-miterlimit:10;}
	.st1{fill:#FFC300;stroke:#695000;stroke-width:13;stroke-linecap:round;stroke-miterlimit:10;}
</style><style
     type="text/css"
     id="style16758-9">
	.st0{fill:#FFC300;stroke:#695000;stroke-width:13;stroke-miterlimit:10;}
	.st1{fill:#FFC300;stroke:#695000;stroke-width:13;stroke-linecap:round;stroke-miterlimit:10;}
</style></svg>

<svg xmlns="http://www.w3.org/2000/svg" xml:space="preserve" width="84" height="84" viewBox="0 0 22.225 22.225"><g transform="matrix(.16406 0 0 .16406 0 0)"><circle cx="75.958" cy="77.383" r="54.995" style="fill:#ffc703;fill-opacity:1;stroke:#584d00;stroke-width:6.17647;stroke-dasharray:none;stroke-opacity:1"/><path d="m14.041 45.922 21.205-.126s1.636 0 2.706-.755c1.07-.756 16.486-9.187 16.486-9.187s2.202-1.259 2.077-2.517c-.126-1.259.314-3.21-1.259-3.964-1.573-.755-2.769-1.133-4.09-1.133s-1.447-.126-1.447-.126l18.814-10.76s1.258-.692 1.699-2.076c.44-1.385.189-3.398-.315-4.027-.503-.63-1.699-2.203-3.901-2.014S23.039 32.393 23.039 32.393Z" style="fill:#d4aa00;fill-opacity:1;stroke:#584d00;stroke-width:2.70156;stroke-dasharray:none;stroke-opacity:1"/><path d="m31.723 32.393 32.28-19.003 2.705-1.95s1.683-1.848 1.573-3.43c-.163-2.345-2.333-4.866-4.011-5.16-1.526-.267-2.155.032-4.672 1.353-2.517 1.322-33.79 18.626-33.79 18.626Z" style="fill:#ffc703;fill-opacity:1;stroke:#584d00;stroke-width:2.70156;stroke-dasharray:none;stroke-opacity:1"/><path d="m33.673 26.226 25.421-15.92s1.794-1.336 1.888-3.46c.073-1.645-1.211-4.31-2.91-5.065s-2.69-.535-4.263.094c-1.573.63-13.529 8.054-13.529 8.054l-11.766 7.236Z" style="fill:#ffc703;fill-opacity:1;stroke:#584d00;stroke-width:2.70156;stroke-dasharray:none;stroke-opacity:1"/><path d="M39.4 6.343 6.741 24.968s-3.901 4.027-3.964 8.81c-.063 4.781 1.258 6.103 3.02 7.928 1.762 1.824 4.153 4.341 6.985 4.341 2.831 0 6.23-.251 8.683-2.076 2.454-1.825 7.551-7.173 7.551-7.173s2.517-2.517 3.272-5.412 1.573-7.11 1.636-8.306.378-2.894.378-2.894l11.389-6.733s1.573-1.007 1.636-3.02-1.007-4.28-2.077-4.845c-1.07-.567-2.14-.881-3.523-.378-1.385.503-2.329 1.133-2.329 1.133z" style="fill:#ffc703;fill-opacity:1;stroke:#584d00;stroke-width:2.70156;stroke-dasharray:none;stroke-opacity:1"/><path d="M46.339 99.95s27.125 5.824 59.238-.777" style="fill:#ffd42a;fill-opacity:1;stroke:#584d00;stroke-width:5.55371;stroke-linecap:round;stroke-dasharray:none;stroke-opacity:1"/><g transform="translate(.08)"><ellipse cx="56.554" cy="71.18" rx="2.403" ry="8.276" style="fill:#ffd42a;fill-opacity:1;stroke:#584d00;stroke-width:5.55371;stroke-linecap:round;stroke-dasharray:none;stroke-opacity:1"/><ellipse cx="95.203" cy="71.18" rx="2.403" ry="8.276" style="fill:#ffd42a;fill-opacity:1;stroke:#584d00;stroke-width:5.55371;stroke-linecap:round;stroke-dasharray:none;stroke-opacity:1"/></g><path d="m45.125 61.163 21.646-.252M86.403 61.163l21.646-.252" style="fill:#ffd42a;fill-opacity:1;stroke:#584d00;stroke-width:6.78015;stroke-linecap:round;stroke-dasharray:none;stroke-opacity:1" transform="translate(-.63)"/></g></svg>
